X:1
T:Title
%%score { ( 1 3 ) | ( 2 4 ) }
L:1/8
M:3/4
K:D
V:1 treble nm="Grand Piano"
V:3 treble 
V:2 bass 
V:4 bass 
V:1
 z2 z2[Q:1/4=92] DE | F2 F2 F[EG] | [FA]2 [FA]2 [EG][DF] | [CE]2 [GB]2 [FA]2 |[M:2/4] F4 | %5
[M:1/4] DE |[M:3/4] F2 F2 F[EG] | [FA]2 [FA]2 [A,EG][A,DF] | C2- [CB]2 [CA]2 |[M:2/4] D4 | %10
[M:1/4] AA |[M:3/4] [Fd]3 [Ac] [GB][FA] | c2 B2 BB | [^GB]3 B cd |[M:2/4] d2 c2 |[M:1/4] AA | %16
[M:3/4] [Fd]3 [DFA] [DF][DFd] | [DAc]2 [DGB]2 GF | A,A, B2 [CA]2 |[M:2/4] D4 |] %20
V:2
 z2 z2 [D,F,][D,G,D] | [D,A,D]2 [D,A,D]2 [D,A,D][D,A,] | [D,D]2 [D,D]2 [D,A,][D,A,] | %3
 [A,,E,A,]4 [A,,A,]2 |[M:2/4] [D,A,D]4 |[M:1/4] [D,F,][D,G,D] | %6
[M:3/4] [D,A,D]2 [D,A,D]2 [D,A,D][D,A,] | [D,D]2 [D,D]2 D,D, | z2 E,2 [A,,G,]2 |[M:2/4] [D,F,]4 | %10
[M:1/4] [D,F,D][D,F,D] |[M:3/4] [D,A,]3 [D,A,] [D,D][D,D] | [G,DG]2 [G,DG]2 [G,DG][G,DG] | %13
 [E,E]3 [E,^G,E] [E,A,E][E,B,E] |[M:2/4] [A,B,E]2[K:treble] [A,E]2 |[M:1/4] [A,CG][A,CG] | %16
[M:3/4][K:bass] [D,A,]3 D, D,D, | G,,2 G,,2 ED | A,,A,, [A,,G,]2 [A,,G,]2 |[M:2/4] [D,F,]4 |] %20
V:3
 x6 | x6 | x6 | x6 |[M:2/4] x4 |[M:1/4] x2 |[M:3/4] x6 | x6 | [A,E]2 z2 z2 |[M:2/4] x4 | %10
[M:1/4] x2 |[M:3/4] x6 | x6 | x6 |[M:2/4] x4 |[M:1/4] x2 |[M:3/4] x6 | x6 | [C-E]2 C2 z2 | %19
[M:2/4] x4 |] %20
V:4
 x6 | x6 | x6 | x6 |[M:2/4] x4 |[M:1/4] x2 |[M:3/4] x6 | x6 | A,,4 z2 |[M:2/4] x4 |[M:1/4] x2 | %11
[M:3/4] x6 | x6 | x6 |[M:2/4] x2[K:treble] x2 |[M:1/4] x2 |[M:3/4][K:bass] x6 | x6 | x6 | %19
[M:2/4] x4 |] %20

